build/img/sprite_auto.svg

<svg xmlns="http://www.w3.org/2000/svg" xmlns:xlink="http://www.w3.org/1999/xlink"><symbol id="icon-check" viewBox="0 0 32 32">
<path d="M16 31C24.2843 31 31 24.2843 31 16C31 7.71573 24.2843 1 16 1C7.71573 1 1 7.71573 1 16C1 24.2843 7.71573 31 16 31Z" stroke="#B70046" stroke-width="1.3" stroke-linecap="round" stroke-linejoin="round"/>
<path d="M22.1111 12.1111L14.4722 19.8889L11 16.3535" stroke="white" stroke-width="1.3" stroke-linecap="round" stroke-linejoin="round"/>
</symbol><symbol id="icon-git" viewBox="0 0 14 14">
<path d="M1 11V7C1 5.4087 1.63214 3.88258 2.75736 2.75736C3.88258 1.63214 5.4087 1 7 1C8.5913 1 10.1174 1.63214 11.2426 2.75736C12.3679 3.88258 13 5.4087 13 7V11" stroke="white" stroke-width="1.5" stroke-linecap="round" stroke-linejoin="round"/>
<path d="M13 11.6666C13 12.0202 12.8595 12.3593 12.6095 12.6094C12.3594 12.8594 12.0203 12.9999 11.6667 12.9999H11C10.6464 12.9999 10.3072 12.8594 10.0572 12.6094C9.80714 12.3593 9.66667 12.0202 9.66667 11.6666V9.66659C9.66667 9.31296 9.80714 8.97383 10.0572 8.72378C10.3072 8.47373 10.6464 8.33325 11 8.33325H13V11.6666ZM1 11.6666C1 12.0202 1.14048 12.3593 1.39052 12.6094C1.64057 12.8594 1.97971 12.9999 2.33333 12.9999H3C3.35362 12.9999 3.69276 12.8594 3.94281 12.6094C4.19286 12.3593 4.33333 12.0202 4.33333 11.6666V9.66659C4.33333 9.31296 4.19286 8.97383 3.94281 8.72378C3.69276 8.47373 3.35362 8.33325 3 8.33325H1V11.6666Z" stroke="white" stroke-width="1.5" stroke-linecap="round" stroke-linejoin="round"/>
</symbol><symbol id="icon-mail" viewBox="0 0 35 35">
<circle cx="17.5" cy="17.5" r="17.5" fill="#B70046"/>
<path d="M12.4 12H23.6C24.37 12 25 12.63 25 13.4V21.8C25 22.57 24.37 23.2 23.6 23.2H12.4C11.63 23.2 11 22.57 11 21.8V13.4C11 12.63 11.63 12 12.4 12Z" fill="white"/>
<path d="M25 13.4001L18 18.3001L11 13.4001" stroke="#B70046" stroke-linecap="round" stroke-linejoin="round"/>
</symbol><symbol id="icon-phone" viewBox="0 0 35 35">
<circle cx="17.5" cy="17.5" r="17.5" fill="#B70046"/>
<path d="M22.9569 19.533C22.1609 19.533 21.3795 19.4085 20.6389 19.1638C20.276 19.04 19.8299 19.1536 19.6084 19.381L18.1467 20.4845C16.4516 19.5796 15.4074 18.5357 14.5148 16.8533L15.5858 15.4296C15.8641 15.1518 15.9639 14.7459 15.8443 14.365C15.5985 13.6205 15.4736 12.8394 15.4736 12.0432C15.4737 11.468 15.0057 11 14.4305 11H12.0431C11.468 11 11 11.468 11 12.0431C11 18.6362 16.3638 24 22.9569 24C23.532 24 24 23.532 24 22.9568V20.5761C24 20.001 23.532 19.533 22.9569 19.533Z" fill="white"/>
</symbol><symbol id="icon-toggle" viewBox="0 0 24 24"><path d="M3 13h2v-2H3v2zm0 4h2v-2H3v2zm0-8h2V7H3v2zm4 4h14v-2H7v2zm0 4h14v-2H7v2zM7 7v2h14V7H7z"/><path d="M0 0h24v24H0z" fill="none"/></symbol></svg>

<svg xmlns="http://www.w3.org/2000/svg" xmlns:xlink="http://www.w3.org/1999/xlink"><symbol id="icon-check"><path d="M16 31c8.284 0 15-6.716 15-15 0-8.284-6.716-15-15-15C7.716 1 1 7.716 1 16c0 8.284 6.716 15 15 15z" stroke="#B70046" stroke-width="1.3" stroke-linecap="round" stroke-linejoin="round"/><path d="M22.111 12.111l-7.639 7.778L11 16.354" stroke="#fff" stroke-width="1.3" stroke-linecap="round" stroke-linejoin="round"/></symbol><symbol id="icon-git"><path d="M1 11V7a6 6 0 1112 0v4" stroke="#fff" stroke-width="1.5" stroke-linecap="round" stroke-linejoin="round"/><path d="M13 11.667A1.334 1.334 0 0111.667 13H11a1.333 1.333 0 01-1.333-1.333v-2A1.333 1.333 0 0111 8.333h2v3.334zm-12 0A1.333 1.333 0 002.333 13H3a1.334 1.334 0 001.333-1.333v-2A1.333 1.333 0 003 8.333H1v3.334z" stroke="#fff" stroke-width="1.5" stroke-linecap="round" stroke-linejoin="round"/></symbol><symbol id="icon-mail"><circle cx="17.5" cy="17.5" r="17.5" fill="#B70046"/><path d="M12.4 12h11.2c.77 0 1.4.63 1.4 1.4v8.4c0 .77-.63 1.4-1.4 1.4H12.4c-.77 0-1.4-.63-1.4-1.4v-8.4c0-.77.63-1.4 1.4-1.4z" fill="#fff"/><path d="M25 13.4l-7 4.9-7-4.9" stroke="#B70046" stroke-linecap="round" stroke-linejoin="round"/></symbol><symbol id="icon-phone"><circle cx="17.5" cy="17.5" r="17.5" fill="#B70046"/><path d="M22.957 19.533a7.382 7.382 0 01-2.318-.37c-.363-.123-.81-.01-1.03.218l-1.462 1.104c-1.695-.905-2.74-1.95-3.632-3.632l1.07-1.423a1.05 1.05 0 00.26-1.065 7.392 7.392 0 01-.371-2.322c0-.575-.468-1.043-1.043-1.043h-2.388c-.575 0-1.043.468-1.043 1.043C11 18.636 16.364 24 22.957 24c.575 0 1.043-.468 1.043-1.043v-2.38c0-.576-.468-1.044-1.043-1.044z" fill="#fff"/></symbol><symbol id="icon-toggle"><path d="M3 13h2v-2H3v2zm0 4h2v-2H3v2zm0-8h2V7H3v2zm4 4h14v-2H7v2zm0 4h14v-2H7v2zM7 7v2h14V7H7z"/><path d="M0 0h24v24H0z" fill="none"/></symbol></svg>
